static/img/kroki/cfc0431e12b6138565854f4d23a33ad3.svg

<?xml version="1.0" encoding="us-ascii" standalone="no"?><svg xmlns="http://www.w3.org/2000/svg" xmlns:xlink="http://www.w3.org/1999/xlink" contentStyleType="text/css" height="152px" preserveAspectRatio="none" style="width:912px;height:152px;" version="1.1" viewBox="0 0 912 152" width="912px" zoomAndPan="magnify"><defs/><g><!--class aws_dynamodb_table--><g id="elem_aws_dynamodb_table"><rect codeLine="22" fill="#3D176E" height="39.7891" id="aws_dynamodb_table" rx="2.5" ry="2.5" style="stroke:#000D19;stroke-width:0.5;" width="223" x="7" y="106.79"/><ellipse cx="22" cy="126.6845" fill="#ADD1B2" rx="11" ry="11" style="stroke:#181818;stroke-width:1.0;"/><path d="M24.9688,132.3252 Q24.3906,132.622 23.75,132.7627 Q23.1094,132.9189 22.4063,132.9189 Q19.9063,132.9189 18.5781,131.2783 Q17.2656,129.622 17.2656,126.497 Q17.2656,123.372 18.5781,121.7158 Q19.9063,120.0595 22.4063,120.0595 Q23.1094,120.0595 23.75,120.2158 Q24.4063,120.372 24.9688,120.6689 L24.9688,123.3877 Q24.3438,122.8095 23.75,122.5439 Q23.1563,122.2627 22.5313,122.2627 Q21.1875,122.2627 20.5,123.3408 Q19.8125,124.4033 19.8125,126.497 Q19.8125,128.5908 20.5,129.6689 Q21.1875,130.7314 22.5313,130.7314 Q23.1563,130.7314 23.75,130.4658 Q24.3438,130.1845 24.9688,129.6064 L24.9688,132.3252 Z " fill="#000000"/><text fill="#D9B8FF" font-family="Helvetica" font-size="17" lengthAdjust="spacing" textLength="181" x="41" y="132.5698">aws_dynamodb_table</text></g><!--class aws_ec2_instance--><g id="elem_aws_ec2_instance"><rect codeLine="24" fill="#3D176E" height="39.7891" id="aws_ec2_instance" rx="2.5" ry="2.5" style="stroke:#000D19;stroke-width:0.5;" width="192" x="265.5" y="106.79"/><ellipse cx="280.5" cy="126.6845" fill="#ADD1B2" rx="11" ry="11" style="stroke:#181818;stroke-width:1.0;"/><path d="M283.4688,132.3252 Q282.8906,132.622 282.25,132.7627 Q281.6094,132.9189 280.9063,132.9189 Q278.4063,132.9189 277.0781,131.2783 Q275.7656,129.622 275.7656,126.497 Q275.7656,123.372 277.0781,121.7158 Q278.4063,120.0595 280.9063,120.0595 Q281.6094,120.0595 282.25,120.2158 Q282.9063,120.372 283.4688,120.6689 L283.4688,123.3877 Q282.8438,122.8095 282.25,122.5439 Q281.6563,122.2627 281.0313,122.2627 Q279.6875,122.2627 279,123.3408 Q278.3125,124.4033 278.3125,126.497 Q278.3125,128.5908 279,129.6689 Q279.6875,130.7314 281.0313,130.7314 Q281.6563,130.7314 282.25,130.4658 Q282.8438,130.1845 283.4688,129.6064 L283.4688,132.3252 Z " fill="#000000"/><text fill="#D9B8FF" font-family="Helvetica" font-size="17" lengthAdjust="spacing" textLength="150" x="299.5" y="132.5698">aws_ec2_instance</text></g><!--class aws_s3_bucket--><g id="elem_aws_s3_bucket"><rect codeLine="26" fill="#3D176E" height="39.7891" id="aws_s3_bucket" rx="2.5" ry="2.5" style="stroke:#000D19;stroke-width:0.5;" width="168" x="492.5" y="106.79"/><ellipse cx="507.5" cy="126.6845" fill="#ADD1B2" rx="11" ry="11" style="stroke:#181818;stroke-width:1.0;"/><path d="M510.4688,132.3252 Q509.8906,132.622 509.25,132.7627 Q508.6094,132.9189 507.9063,132.9189 Q505.4063,132.9189 504.0781,131.2783 Q502.7656,129.622 502.7656,126.497 Q502.7656,123.372 504.0781,121.7158 Q505.4063,120.0595 507.9063,120.0595 Q508.6094,120.0595 509.25,120.2158 Q509.9063,120.372 510.4688,120.6689 L510.4688,123.3877 Q509.8438,122.8095 509.25,122.5439 Q508.6563,122.2627 508.0313,122.2627 Q506.6875,122.2627 506,123.3408 Q505.3125,124.4033 505.3125,126.497 Q505.3125,128.5908 506,129.6689 Q506.6875,130.7314 508.0313,130.7314 Q508.6563,130.7314 509.25,130.4658 Q509.8438,130.1845 510.4688,129.6064 L510.4688,132.3252 Z " fill="#000000"/><text fill="#D9B8FF" font-family="Helvetica" font-size="17" lengthAdjust="spacing" textLength="126" x="526.5" y="132.5698">aws_s3_bucket</text></g><!--class aws_ssm_document--><g id="elem_aws_ssm_document"><rect codeLine="28" fill="#3D176E" height="39.7891" id="aws_ssm_document" rx="2.5" ry="2.5" style="stroke:#000D19;stroke-width:0.5;" width="210" x="695.5" y="106.79"/><ellipse cx="710.5" cy="126.6845" fill="#ADD1B2" rx="11" ry="11" style="stroke:#181818;stroke-width:1.0;"/><path d="M713.4688,132.3252 Q712.8906,132.622 712.25,132.7627 Q711.6094,132.9189 710.9063,132.9189 Q708.4063,132.9189 707.0781,131.2783 Q705.7656,129.622 705.7656,126.497 Q705.7656,123.372 707.0781,121.7158 Q708.4063,120.0595 710.9063,120.0595 Q711.6094,120.0595 712.25,120.2158 Q712.9063,120.372 713.4688,120.6689 L713.4688,123.3877 Q712.8438,122.8095 712.25,122.5439 Q711.6563,122.2627 711.0313,122.2627 Q709.6875,122.2627 709,123.3408 Q708.3125,124.4033 708.3125,126.497 Q708.3125,128.5908 709,129.6689 Q709.6875,130.7314 711.0313,130.7314 Q711.6563,130.7314 712.25,130.4658 Q712.8438,130.1845 713.4688,129.6064 L713.4688,132.3252 Z " fill="#000000"/><text fill="#D9B8FF" font-family="Helvetica" font-size="17" lengthAdjust="spacing" textLength="168" x="729.5" y="132.5698">aws_ssm_document</text></g><!--class aws_ssm_resource_compliance--><g id="elem_aws_ssm_resource_compliance"><rect codeLine="30" fill="#3D176E" height="39.7891" id="aws_ssm_resource_compliance" rx="2.5" ry="2.5" style="stroke:#000D19;stroke-width:0.5;" width="300" x="318.5" y="7"/><ellipse cx="333.5" cy="26.8945" fill="#ADD1B2" rx="11" ry="11" style="stroke:#181818;stroke-width:1.0;"/><path d="M336.4688,32.5352 Q335.8906,32.832 335.25,32.9727 Q334.6094,33.1289 333.9063,33.1289 Q331.4063,33.1289 330.0781,31.4883 Q328.7656,29.832 328.7656,26.707 Q328.7656,23.582 330.0781,21.9258 Q331.4063,20.2695 333.9063,20.2695 Q334.6094,20.2695 335.25,20.4258 Q335.9063,20.582 336.4688,20.8789 L336.4688,23.5977 Q335.8438,23.0195 335.25,22.7539 Q334.6563,22.4727 334.0313,22.4727 Q332.6875,22.4727 332,23.5508 Q331.3125,24.6133 331.3125,26.707 Q331.3125,28.8008 332,29.8789 Q332.6875,30.9414 334.0313,30.9414 Q334.6563,30.9414 335.25,30.6758 Q335.8438,30.3945 336.4688,29.8164 L336.4688,32.5352 Z " fill="#000000"/><text fill="#D9B8FF" font-family="Helvetica" font-size="17" lengthAdjust="spacing" textLength="258" x="352.5" y="32.7798">aws_ssm_resource_compliance</text></g><!--link aws_ssm_resource_compliance to aws_dynamodb_table--><g id="link_aws_ssm_resource_compliance_aws_dynamodb_table"><path codeLine="32" d="M399.35,47.22 C338.09,64.33 254.8887,87.5754 193.5787,104.7054 " fill="none" id="aws_ssm_resource_compliance-to-aws_dynamodb_table" style="stroke:#1A83AF;stroke-width:2.0;"/><polygon fill="#1A83AF" points="187.8,106.32,197.5444,107.7506,192.6156,104.9745,195.3917,100.0457,187.8,106.32" style="stroke:#1A83AF;stroke-width:2.0;"/></g><!--link aws_ssm_resource_compliance to aws_ec2_instance--><g id="link_aws_ssm_resource_compliance_aws_ec2_instance"><path codeLine="33" d="M447.36,47.22 C428.6,64.36 405.7674,85.2206 387.0274,102.3606 " fill="none" id="aws_ssm_resource_compliance-to-aws_ec2_instance" style="stroke:#1A83AF;stroke-width:2.0;"/><polygon fill="#1A83AF" points="382.6,106.41,391.9408,103.2875,386.2895,103.0355,386.5415,97.3842,382.6,106.41" style="stroke:#1A83AF;stroke-width:2.0;"/></g><!--link aws_ssm_resource_compliance to aws_s3_bucket--><g id="link_aws_ssm_resource_compliance_aws_s3_bucket"><path codeLine="34" d="M489.84,47.22 C508.77,64.36 531.8433,85.2417 550.7633,102.3817 " fill="none" id="aws_ssm_resource_compliance-to-aws_s3_bucket" style="stroke:#1A83AF;stroke-width:2.0;"/><polygon fill="#1A83AF" points="555.21,106.41,551.2256,97.4031,551.5045,103.0531,545.8545,103.332,555.21,106.41" style="stroke:#1A83AF;stroke-width:2.0;"/></g><!--link aws_ssm_resource_compliance to aws_ssm_document--><g id="link_aws_ssm_resource_compliance_aws_ssm_document"><path codeLine="35" d="M534.09,47.22 C592.2,64.33 670.8545,87.4945 729.0045,104.6245 " fill="none" id="aws_ssm_resource_compliance-to-aws_ssm_document" style="stroke:#1A83AF;stroke-width:2.0;"/><polygon fill="#1A83AF" points="734.76,106.32,727.2571,99.9398,729.9638,104.9071,724.9965,107.6138,734.76,106.32" style="stroke:#1A83AF;stroke-width:2.0;"/></g><!--SRC=[bP91Qm8n48Nl_eg0Py5rQTLBOIj8Uv5IUojbcKqc6dQJB9DinPR-zsfj9SskYjTvtyoyDynQ2MIeQxzb6dM1v7gkLAO60iqo8hkPsSeIwqi9CXt7ujmQVn5OW4RsWDKxUiKX9bxMYfS6dMEZGBe7Ngx8DaOSndi2utOI6XzGimgSoxmdLJGU0pDYMaoaZCbuQ3yLoVWMMvWbWVIB38T3aKnZvEAgixcFn59z84l2eosinvRDreeVwgpBFH6OR0NzqqzwV08Xb5cncw3sVF141kbVVRa6OJTxMaBbmZNE8w7rsnfdhLGudGWvxeGVJy5yVpa66vUBhG5jHP5xA2fadxslG4G-ofLn7WoF9PVcHSDBz77TwLnOtkZTXtL8XCusn37dLjULEWu-fmzU-qasIRFvs-2km_DrlM6awpgFYQzi2mxo3G00]--></g></svg>

<svg xmlns="http://www.w3.org/2000/svg" width="912" height="152" viewBox="0 0 912 152"><rect width="223" height="39.789" x="7" y="106.79" fill="#3D176E" rx="2.5" ry="2.5" style="stroke:#000d19;stroke-width:.5"/><circle cx="22" cy="126.684" r="11" fill="#ADD1B2" style="stroke:#181818;stroke-width:1"/><path d="M24.969 132.325q-.578.297-1.219.438-.64.156-1.344.156-2.5 0-3.828-1.64-1.312-1.657-1.312-4.782t1.312-4.781q1.328-1.656 3.828-1.656.703 0 1.344.156.656.156 1.219.453v2.719q-.625-.579-1.219-.844-.594-.281-1.219-.281-1.343 0-2.031 1.078-.687 1.062-.687 3.156t.687 3.172q.688 1.062 2.031 1.062.625 0 1.219-.265.594-.281 1.219-.86z"/><text x="41" y="132.57" fill="#D9B8FF" font-family="Helvetica" font-size="17" textLength="181">aws_dynamodb_table</text><rect width="192" height="39.789" x="265.5" y="106.79" fill="#3D176E" rx="2.5" ry="2.5" style="stroke:#000d19;stroke-width:.5"/><circle cx="280.5" cy="126.684" r="11" fill="#ADD1B2" style="stroke:#181818;stroke-width:1"/><path d="M283.469 132.325q-.578.297-1.219.438-.64.156-1.344.156-2.5 0-3.828-1.64-1.312-1.657-1.312-4.782t1.312-4.781q1.328-1.656 3.828-1.656.703 0 1.344.156.656.156 1.219.453v2.719q-.625-.579-1.219-.844-.594-.281-1.219-.281-1.344 0-2.031 1.078-.687 1.062-.687 3.156t.687 3.172q.688 1.062 2.031 1.062.625 0 1.219-.265.594-.281 1.219-.86z"/><text x="299.5" y="132.57" fill="#D9B8FF" font-family="Helvetica" font-size="17" textLength="150">aws_ec2_instance</text><rect width="168" height="39.789" x="492.5" y="106.79" fill="#3D176E" rx="2.5" ry="2.5" style="stroke:#000d19;stroke-width:.5"/><circle cx="507.5" cy="126.684" r="11" fill="#ADD1B2" style="stroke:#181818;stroke-width:1"/><path d="M510.469 132.325q-.578.297-1.219.438-.64.156-1.344.156-2.5 0-3.828-1.64-1.312-1.657-1.312-4.782t1.312-4.781q1.328-1.656 3.828-1.656.703 0 1.344.156.656.156 1.219.453v2.719q-.625-.579-1.219-.844-.594-.281-1.219-.281-1.344 0-2.031 1.078-.687 1.062-.687 3.156t.687 3.172q.688 1.062 2.031 1.062.625 0 1.219-.265.594-.281 1.219-.86z"/><text x="526.5" y="132.57" fill="#D9B8FF" font-family="Helvetica" font-size="17" textLength="126">aws_s3_bucket</text><rect width="210" height="39.789" x="695.5" y="106.79" fill="#3D176E" rx="2.5" ry="2.5" style="stroke:#000d19;stroke-width:.5"/><circle cx="710.5" cy="126.684" r="11" fill="#ADD1B2" style="stroke:#181818;stroke-width:1"/><path d="M713.469 132.325q-.578.297-1.219.438-.64.156-1.344.156-2.5 0-3.828-1.64-1.312-1.657-1.312-4.782t1.312-4.781q1.328-1.656 3.828-1.656.703 0 1.344.156.656.156 1.219.453v2.719q-.625-.579-1.219-.844-.594-.281-1.219-.281-1.343 0-2.031 1.078-.687 1.062-.687 3.156t.687 3.172q.688 1.062 2.031 1.062.625 0 1.219-.265.594-.281 1.219-.86z"/><text x="729.5" y="132.57" fill="#D9B8FF" font-family="Helvetica" font-size="17" textLength="168">aws_ssm_document</text><rect width="300" height="39.789" x="318.5" y="7" fill="#3D176E" rx="2.5" ry="2.5" style="stroke:#000d19;stroke-width:.5"/><circle cx="333.5" cy="26.895" r="11" fill="#ADD1B2" style="stroke:#181818;stroke-width:1"/><path d="M336.469 32.535q-.578.297-1.219.438-.64.156-1.344.156-2.5 0-3.828-1.64-1.312-1.657-1.312-4.782t1.312-4.781q1.328-1.656 3.828-1.656.703 0 1.344.156.656.156 1.219.453v2.719q-.625-.578-1.219-.844-.594-.281-1.219-.281-1.344 0-2.031 1.078-.687 1.062-.687 3.156t.687 3.172q.688 1.062 2.031 1.062.625 0 1.219-.265.594-.281 1.219-.86z"/><text x="352.5" y="32.78" fill="#D9B8FF" font-family="Helvetica" font-size="17" textLength="258">aws_ssm_resource_compliance</text><path fill="none" d="M399.35 47.22c-61.26 17.11-144.461 40.355-205.771 57.485" style="stroke:#1a83af;stroke-width:2"/><path fill="#1A83AF" d="m187.8 106.32 9.744 1.43-4.928-2.775 2.776-4.93z" style="stroke:#1a83af;stroke-width:2"/><path fill="none" d="M447.36 47.22c-18.76 17.14-41.593 38-60.333 55.14" style="stroke:#1a83af;stroke-width:2"/><path fill="#1A83AF" d="m382.6 106.41 9.34-3.123-5.65-.252.251-5.65z" style="stroke:#1a83af;stroke-width:2"/><path fill="none" d="M489.84 47.22c18.93 17.14 42.003 38.022 60.923 55.162" style="stroke:#1a83af;stroke-width:2"/><path fill="#1A83AF" d="m555.21 106.41-3.984-9.007.279 5.65-5.65.279z" style="stroke:#1a83af;stroke-width:2"/><path fill="none" d="M534.09 47.22c58.11 17.11 136.765 40.275 194.914 57.405" style="stroke:#1a83af;stroke-width:2"/><path fill="#1A83AF" d="m734.76 106.32-7.503-6.38 2.707 4.967-4.968 2.707z" style="stroke:#1a83af;stroke-width:2"/></svg>
